!!!!SEGMENT: pl-sa--l-1636--021_anonim--keyboard-piece.krn
!!!cenid: 17xx:728
!!!COM: Anonim
!!!COM-rismID: pe30004985
!!!CDT:
!!!CNT:
!!!OTL: [Keyboard piece]
!!!PDT:
!!!AGN: Secular
!!!YEC: Copyright 2022 Narodowy Instytut Fryderyka Chopina (https://polishscores.org)
!!!YEM: License CC-BY-4.0 (https://creativecommons.org/licenses/by/4.0)
!!!SMS-siglum: PL-SA
!!!SMS-shelfmark: L 1636
!!!SMS-shelfwork: 021 W
!!!SMS-variant:
!!!SMS-altvar:
!!!NIFC-rismSourceID: 1001076419
!!!NIFC-rismChildID: 1001076419
!!!NIFC-islandoraID:
!!!URL-pdf-islandora:
!!!URL-scan:
!!!IIIF:
!!!ONB-nifc: 6v, skan 0010, s. 2-4, brak zakończenia
!!!AIN: 1 empty
!!!key:
**kern	**kern
*part1	*part1
*staff2	*staff1
*Iempty	*Iempty
*I"	*I"
*clefF4	*clefG2
*k[]	*k[]
*d:	*d:
*M2/2	*M2/2
*met(c|)	*met(c|)
=1	=1
*^	*
4d/	4D\	16dd\LL
.	.	16aa\
.	.	16gg\
.	.	16aa\JJ
4f/	[4d\	16ff\LL
.	.	16gg\
.	.	16ee\
.	.	16ff\JJ
2c/	4d\]	16gg\LL
.	.	16aa\
.	.	16ff\
.	.	16gg\JJ
.	[4c\	16ee\LL
.	.	16aa\
.	.	16gg\
.	.	16aa\JJ
=2	=2	=2
4c\]	2d/	16ff\LL
.	.	16gg\
.	.	16ee\
.	.	16ff\JJ
4B\	.	16dd\LL
.	.	16gg\
.	.	16ff\
.	.	16gg\JJ
4B\	2c/	16ee\LL
.	.	16ff\
.	.	16dd\
.	.	16ee\JJ
4A\	.	16cc\LL
.	.	16ff\
.	.	16ee\
.	.	16ff\JJ
=3	=3	=3
4A\	2B/	16dd\LL
.	.	16ee\
.	.	16cc\
.	.	16dd\JJ
4G\	.	16b-X\LL
.	.	16ee\
.	.	16dd\
.	.	16ee\JJ
4G\	2A/	16cc\LL
.	.	16dd\
.	.	16b-X\
.	.	16cc\JJ
4F\	.	16a\LL
.	.	16dd\
.	.	16cc\
.	.	16dd\JJ
!!LO:LB:g=original
=4	=4	=4
4F\	2G/	16b\LL
.	.	16cc\
.	.	16a\
.	.	16b\JJ
!	!	!LO:TX:a:t=P:problem=mixed beam
[<4E\	.	16g/LL
.	.	16cc\
.	.	16b\
.	.	16cc\JJ
4E\]	2F/	16a/LL
.	.	16b/
.	.	16g/
.	.	16a/JJ
[<4D\	.	16f/LL
.	.	16b-X/
.	.	16a/
.	.	16b-/JJ
=5	=5	=5
4D\]	2E/	16g/LL
.	.	16a/
.	.	16f/
.	.	16g/JJ
[<4C\	.	16e/LL
.	.	16a/
.	.	16g/
.	.	16a/JJ
4C\]	2D/	16f/LL
.	.	16g/
.	.	16e/
.	.	16f/JJ
[<4BB\	.	16d/LL
.	.	16g/
.	.	16f/
.	.	16g/JJ
=6	=6	=6
4BB\]	2C/	16e/LL
.	.	16f/
.	.	16d/
.	.	16e/JJ
[<4AA\	.	16c/LL
.	.	16f/
.	.	16e/
.	.	16f/JJ
4AA\]	2BB-X/	8d/L
.	.	16e/L
.	.	16f/JJ
4GG\	.	16g/LL
.	.	16a/
.	.	16f/
.	.	16g/JJ
!!LO:LB:g=original
=7	=7	=7
1AA	4C#X/	16e/LL
.	.	16f/
.	.	16g/
.	.	16e/JJ
.	4D/	32f/LLL
.	.	32g/
.	.	32a/
.	.	32b/JJJ
.	.	32cc\LLL
.	.	32dd\
.	.	32ee\
.	.	32ff\JJJ
.	2C#X/	8ee\L
.	.	16ff\L
.	.	16gg\JJ
.	.	16aa\LL
.	.	16gg\
.	.	16ff\
.	.	16ee\JJ
=8	=8	=8
1AA	2D/	16ff\LL
.	.	16dd\
.	.	16ee\
.	.	16ff\JJ
.	.	16gg\LL
.	.	16ff\
.	.	16ee\
.	.	16dd\JJ
.	8C#X/L	8ee\L
.	16D/L	16ff\L
.	16C#/JJ	16ee\JJ
.	16D/LL	16ff\LL
.	16C#/	16ee\
.	16BB/	16dd\
.	16C#/JJ	16ee\JJ
*v	*v	*
=9	=9
*	*^
!LO:TX:a:t=P:problem=mixed beam	!LO:TX:a:t=P:problem=dziura w nutach, zapis prawdopodobny	!
16D/LL	2dd/	2dd\
16A\	.	.
16G\	.	.
16A\JJ	.	.
16F\LL	.	.
16G\	.	.
16E\	.	.
16F\JJ	.	.
16G\LL	2ee/	4dd\
16A\	.	.
16F\	.	.
16G\JJ	.	.
16E\LL	.	4cc\
16A\	.	.
16G\	.	.
!LO:TX:a:t=P:problem=brak zakończenia	!	!LO:TX:a:t=P:problem=brak zakończenia
16A\JJ	.	.
*	*v	*v
=	=
*-	*-
!!!system-decoration: s1,s2
!!!RDF**kern: < = below
!!!ENC: Marta Lawrence
!!!END: 2020-12-07
!!!ENC: Tomasz Grochalski
!!!END: 2020-06-11
